; generated by Slic3r 1.2.9 on 2019-10-27 at 19:14:59

; external perimeters extrusion width = 0.50mm
; perimeters extrusion width = 0.72mm
; infill extrusion width = 0.72mm
; solid infill extrusion width = 0.72mm
; top infill extrusion width = 0.72mm

M107
M104 S200 ; set temperature
G28 ; home all axes
G1 Z5 F5000 ; lift nozzle

M109 S200 ; wait for temperature to be reached
G21 ; set units to millimeters
G90 ; use absolute coordinates
M82 ; use absolute distances for extrusion
G92 E0
G1 Z0.350 F7800.000
G1 E-2.00000 F2400.00000
G92 E0
G1 X82.896 Y92.253 F7800.000
G1 E2.00000 F2400.00000
G1 X84.649 Y90.774 E2.07096 F1800.000
G1 X86.801 Y89.981 E2.14192
G1 X87.981 Y89.875 E2.17858
G1 X112.019 Y89.875 E2.92236
G1 X114.278 Y90.272 E2.99332
G1 X116.266 Y91.415 E3.06428 F1800.000
G1 X117.745 Y93.168 E3.13525
G1 X118.538 Y95.320 E3.20621
G1 X118.644 Y96.500 E3.24286
G1 X118.644 Y103.500 E3.45945
G1 X118.247 Y105.759 E3.53041
G1 X117.104 Y107.747 E3.60137
G1 X115.351 Y109.226 E3.67234
G1 X113.199 Y110.019 E3.74330
G1 X112.019 Y110.125 E3.77995
G1 X87.981 Y110.125 E4.52373
G1 X85.722 Y109.728 E4.59470
G1 X83.734 Y108.585 E4.66566
G1 X82.255 Y106.832 E4.73662
G1 X81.462 Y104.680 E4.80758
G1 X81.356 Y103.500 E4.84423
G1 X81.356 Y96.500 E5.06082
G1 X81.753 Y94.241 E5.13179
G1 X82.859 Y92.318 E5.20043
G1 E3.20043 F2400.00000
G92 E0
G1 X110.419 Y101.900 F7800.000
G1 E2.00000 F2400.00000
G1 X89.581 Y101.900 E2.64479 F1800.000
G1 X89.581 Y98.100 E2.76238
G1 X110.419 Y98.100 E3.40716
G1 X110.419 Y101.825 E3.52243
G1 X111.044 Y102.525 F7800.000
G1 X88.956 Y102.525 E4.20589 F1800.000
G1 X88.956 Y97.475 E4.36215
G1 X111.044 Y97.475 E5.04560
G1 X111.044 Y102.450 E5.19954
G1 X111.669 Y103.150 F7800.000
G1 X88.331 Y103.150 E5.92167 F1800.000
G1 X88.331 Y96.850 E6.11660
G1 X111.669 Y96.850 E6.83872
G1 X111.669 Y103.075 E7.03133
G1 X111.236 Y102.900 F7800.000
G1 X110.041 Y98.783 F7800.000
G1 X109.736 Y98.478 E7.04494 F1800.000
G1 X108.835 Y98.478 E7.07334
G1 X110.041 Y99.684 E7.12710
G1 X110.041 Y100.585 E7.15550
G1 X107.935 Y98.478 E7.24943
G1 X107.034 Y98.478 E7.27782
G1 X110.039 Y101.483 E7.41183
G1 X109.177 Y101.522 E7.43905
G1 X106.133 Y98.478 E7.57476
G1 X105.233 Y98.478 E7.60316
G1 X108.276 Y101.522 E7.73887
G1 X107.376 Y101.522 E7.76726
G1 X104.332 Y98.478 E7.90297
G1 X103.432 Y98.478 E7.93137
G1 X106.475 Y101.522 E8.06708
G1 X105.574 Y101.522 E8.09548
G1 X102.531 Y98.478 E8.23119
G1 X101.630 Y98.478 E8.25958
G1 X104.674 Y101.522 E8.39529
G1 X103.773 Y101.522 E8.42369
G1 X100.730 Y98.478 E8.55940
G1 X99.829 Y98.478 E8.58780
G1 X102.873 Y101.522 E8.72350
G1 X101.972 Y101.522 E8.75190
G1 X98.929 Y98.478 E8.88761
G1 X98.028 Y98.478 E8.91601
G1 X101.071 Y101.522 E9.05172
G1 X100.171 Y101.522 E9.08012
G1 X97.127 Y98.478 E9.21582
G1 X96.227 Y98.478 E9.24422
G1 X99.270 Y101.522 E9.37993
G1 X98.370 Y101.522 E9.40833
G1 X95.326 Y98.478 E9.54404
G1 X94.426 Y98.478 E9.57244
G1 X97.469 Y101.522 E9.70814
G1 X96.568 Y101.522 E9.73654
G1 X93.525 Y98.478 E9.87225
G1 X92.624 Y98.478 E9.90065
G1 X95.668 Y101.522 E10.03636
G1 X94.767 Y101.522 E10.06476
G1 X91.724 Y98.478 E10.20046
G1 X90.823 Y98.478 E10.22886
G1 X93.867 Y101.522 E10.36457
G1 X92.966 Y101.522 E10.39297
G1 X89.961 Y98.517 E10.52697
G1 X89.959 Y99.415 E10.55531
G1 X92.065 Y101.522 E10.64924
G1 X91.165 Y101.522 E10.67764
G1 X89.959 Y100.316 E10.73140
G1 X89.959 Y101.217 E10.75980
G1 X90.264 Y101.522 E10.77341
G1 Z0.650 F7800.000
G1 X111.270 Y102.050 F7800.000
G1 X88.730 Y102.050 E11.39952 F3600.000
G1 X88.730 Y97.950 E11.51343
G1 X111.270 Y97.950 E12.13954
G1 X111.270 Y101.975 E12.25137
G1 X111.924 Y102.705 F7800.000
G1 X88.076 Y102.705 E12.91384 F3600.000
G1 X88.076 Y97.295 E13.06411
G1 X111.924 Y97.295 E13.72659
G1 X111.924 Y102.630 E13.87478
G1 X112.269 Y103.250 F7800.000
G1 X87.731 Y103.250 E14.32845 F1800.000
G1 X87.530 Y103.250 E14.33401 F3600.000
G1 X87.530 Y96.750 E14.51457
G1 X87.731 Y96.750 E14.52013
G1 X112.269 Y96.750 E14.97381 F1800.000
G1 X112.470 Y96.750 E14.97937 F3600.000
G1 X112.470 Y103.250 E15.15993
G1 X112.344 Y103.250 E15.16341
G1 E13.16341 F2400.00000
G92 E0
G1 X110.555 Y101.653 F7800.000
G1 E2.00000 F2400.00000
G1 X110.873 Y101.335 E2.01266 F1200.000
G1 X110.873 Y100.396 E2.03913
G1 X109.616 Y101.653 E2.08921
G1 X108.677 Y101.653 E2.11568
G1 X110.873 Y99.457 E2.20319
G1 X110.873 Y98.518 E2.22966
G1 X107.738 Y101.653 E2.35460
G1 X106.799 Y101.653 E2.38106
G1 X110.105 Y98.347 E2.51282
G1 X109.165 Y98.347 E2.53928
G1 X105.860 Y101.653 E2.67104
G1 X104.920 Y101.653 E2.69751
G1 X108.226 Y98.347 E2.82927
G1 X107.287 Y98.347 E2.85573
G1 X103.981 Y101.653 E2.98749
G1 X103.042 Y101.653 E3.01396
G1 X106.348 Y98.347 E3.14572
G1 X105.409 Y98.347 E3.17218
G1 X102.103 Y101.653 E3.30394
G1 X101.164 Y101.653 E3.33040
G1 X104.470 Y98.347 E3.46216
G1 X103.531 Y98.347 E3.48863
G1 X100.225 Y101.653 E3.62039
G1 X99.286 Y101.653 E3.64685
G1 X102.592 Y98.347 E3.77861
G1 X101.653 Y98.347 E3.80508
G1 X98.347 Y101.653 E3.93683
G1 X97.408 Y101.653 E3.96330
G1 X100.714 Y98.347 E4.09506
G1 X99.775 Y98.347 E4.12152
G1 X96.469 Y101.653 E4.25328
G1 X95.530 Y101.653 E4.27975
G1 X98.836 Y98.347 E4.41151
G1 X97.897 Y98.347 E4.43797
G1 X94.591 Y101.653 E4.56973
G1 X93.652 Y101.653 E4.59619
G1 X96.958 Y98.347 E4.72795
G1 X96.019 Y98.347 E4.75442
G1 X92.713 Y101.653 E4.88618
G1 X91.774 Y101.653 E4.91264
G1 X95.080 Y98.347 E5.04440
G1 X94.140 Y98.347 E5.07087
G1 X90.835 Y101.653 E5.20262
G1 X89.895 Y101.653 E5.22909
G1 X93.201 Y98.347 E5.36085
G1 X92.262 Y98.347 E5.38731
G1 X89.127 Y101.482 E5.51225
G1 X89.127 Y100.543 E5.53872
G1 X91.323 Y98.347 E5.62623
G1 X90.384 Y98.347 E5.65269
G1 X89.127 Y99.604 E5.70278
G1 X89.127 Y98.665 E5.72925
G1 X89.445 Y98.347 E5.74191
G1 Z0.950 F7800.000
G1 X111.707 Y102.050 F7800.000
G1 X88.293 Y102.050 E6.39227 F3600.000
G1 X88.293 Y97.950 E6.50618
G1 X111.707 Y97.950 E7.15654
G1 X111.707 Y101.975 E7.26838
G1 X112.361 Y102.705 F7800.000
G1 X87.639 Y102.705 E7.95510 F3600.000
G1 X87.639 Y97.295 E8.10537
G1 X112.361 Y97.295 E8.79210
G1 X112.361 Y102.630 E8.94029
G1 X112.906 Y103.250 F7800.000
G1 X87.094 Y103.250 E9.41751 F1800.000
G1 X87.094 Y96.750 E9.53768
G1 X112.906 Y96.750 E10.01491
G1 X112.906 Y103.175 E10.13369
G1 X112.473 Y103.000 F7800.000
G1 E8.13369 F2400.00000
G92 E0
G1 X111.309 Y98.665 F7800.000
G1 E2.00000 F2400.00000
G1 X110.991 Y98.347 E2.01263 F1200.000
G1 X110.055 Y98.347 E2.03896
G1 X111.309 Y99.601 E2.08882
G1 X111.309 Y100.538 E2.11514
G1 X109.118 Y98.347 E2.20224
G1 X108.182 Y98.347 E2.22856
G1 X111.309 Y101.475 E2.35289
G1 X110.551 Y101.653 E2.37478
G1 X107.245 Y98.347 E2.50620
G1 X106.308 Y98.347 E2.53252
G1 X109.614 Y101.653 E2.66394
G1 X108.678 Y101.653 E2.69027
G1 X105.372 Y98.347 E2.82168
G1 X104.435 Y98.347 E2.84801
G1 X107.741 Y101.653 E2.97943
G1 X106.804 Y101.653 E3.00575
G1 X103.498 Y98.347 E3.13717
G1 X102.562 Y98.347 E3.16350
G1 X105.868 Y101.653 E3.29491
G1 X104.931 Y101.653 E3.32124
G1 X101.625 Y98.347 E3.45266
G1 X100.689 Y98.347 E3.47898
G1 X103.995 Y101.653 E3.61040
G1 X103.058 Y101.653 E3.63673
G1 X99.752 Y98.347 E3.76814
G1 X98.815 Y98.347 E3.79447
G1 X102.121 Y101.653 E3.92588
G1 X101.185 Y101.653 E3.95221
G1 X97.879 Y98.347 E4.08363
G1 X96.942 Y98.347 E4.10995
G1 X100.248 Y101.653 E4.24137
G1 X99.311 Y101.653 E4.26770
G1 X96.005 Y98.347 E4.39911
G1 X95.069 Y98.347 E4.42544
G1 X98.375 Y101.653 E4.55686
G1 X97.438 Y101.653 E4.58318
G1 X94.132 Y98.347 E4.71460
G1 X93.196 Y98.347 E4.74093
G1 X96.502 Y101.653 E4.87234
G1 X95.565 Y101.653 E4.89867
G1 X92.259 Y98.347 E5.03009
G1 X91.322 Y98.347 E5.05641
G1 X94.628 Y101.653 E5.18783
G1 X93.692 Y101.653 E5.21416
G1 X90.386 Y98.347 E5.34557
G1 X89.449 Y98.347 E5.37190
G1 X92.755 Y101.653 E5.50332
G1 X91.818 Y101.653 E5.52964
G1 X88.691 Y98.525 E5.65397
G1 X88.691 Y99.462 E5.68029
G1 X90.882 Y101.653 E5.76738
G1 X89.945 Y101.653 E5.79371
G1 X88.691 Y100.399 E5.84357
G1 X88.691 Y101.335 E5.86990
G1 X89.009 Y101.653 E5.88253
M106 S234.6
G1 Z1.250 F7800.000
G1 X112.042 Y102.050 F7800.000
G1 X87.958 Y102.050 E6.55153 F3600.000
G1 X87.958 Y97.950 E6.66545
G1 X112.042 Y97.950 E7.33445
G1 X112.042 Y101.975 E7.44628
G1 X112.697 Y102.705 F7800.000
G1 X87.303 Y102.705 E8.15165 F3600.000
G1 X87.303 Y97.295 E8.30192
G1 X112.697 Y97.295 E9.00729
G1 X112.697 Y102.630 E9.15548
G1 X113.242 Y103.250 F7800.000
G1 X86.758 Y103.250 E9.64511 F1800.000
G1 X86.758 Y96.750 E9.76529
G1 X113.242 Y96.750 E10.25492
G1 X113.242 Y103.175 E10.37371
G1 X112.809 Y103.000 F7800.000
G1 E8.37371 F2400.00000
G92 E0
G1 X111.327 Y101.653 F7800.000
G1 E2.00000 F2400.00000
G1 X111.645 Y101.335 E2.01250 F1200.000
G1 X111.645 Y100.408 E2.03830
G1 X110.400 Y101.653 E2.08728
G1 X109.473 Y101.653 E2.11308
G1 X111.645 Y99.481 E2.19854
G1 X111.645 Y98.554 E2.22434
G1 X108.546 Y101.653 E2.34628
G1 X107.618 Y101.653 E2.37208
G1 X110.924 Y98.347 E2.50217
G1 X109.997 Y98.347 E2.52796
G1 X106.691 Y101.653 E2.65805
G1 X105.764 Y101.653 E2.68385
G1 X109.070 Y98.347 E2.81393
G1 X108.143 Y98.347 E2.83973
G1 X104.837 Y101.653 E2.96982
G1 X103.910 Y101.653 E2.99561
G1 X107.216 Y98.347 E3.12570
G1 X106.289 Y98.347 E3.15149
G1 X102.983 Y101.653 E3.28158
G1 X102.056 Y101.653 E3.30738
G1 X105.362 Y98.347 E3.43746
G1 X104.434 Y98.347 E3.46326
G1 X101.128 Y101.653 E3.59335
G1 X100.201 Y101.653 E3.61914
G1 X103.507 Y98.347 E3.74923
G1 X102.580 Y98.347 E3.77503
G1 X99.274 Y101.653 E3.90511
G1 X98.347 Y101.653 E3.93091
G1 X101.653 Y98.347 E4.06099
G1 X100.726 Y98.347 E4.08679
G1 X97.420 Y101.653 E4.21688
G1 X96.493 Y101.653 E4.24267
G1 X99.799 Y98.347 E4.37276
G1 X98.872 Y98.347 E4.39856
G1 X95.566 Y101.653 E4.52864
G1 X94.638 Y101.653 E4.55444
G1 X97.944 Y98.347 E4.68452
G1 X97.017 Y98.347 E4.71032
G1 X93.711 Y101.653 E4.84041
G1 X92.784 Y101.653 E4.86620
G1 X96.090 Y98.347 E4.99629
G1 X95.163 Y98.347 E5.02209
G1 X91.857 Y101.653 E5.15217
G1 X90.930 Y101.653 E5.17797
G1 X94.236 Y98.347 E5.30806
G1 X93.309 Y98.347 E5.33385
G1 X90.003 Y101.653 E5.46394
G1 X89.076 Y101.653 E5.48973
G1 X92.382 Y98.347 E5.61982
G1 X91.454 Y98.347 E5.64562
G1 X88.355 Y101.446 E5.76756
G1 X88.355 Y100.519 E5.79336
G1 X90.527 Y98.347 E5.87882
G1 X89.600 Y98.347 E5.90462
G1 X88.355 Y99.592 E5.95360
G1 X88.355 Y98.665 E5.97940
G1 X88.673 Y98.347 E5.99190
G1 Z1.550 F7800.000
G1 X112.298 Y102.050 F7800.000
G1 X87.702 Y102.050 E6.67514 F3600.000
G1 X87.702 Y97.950 E6.78905
G1 X112.298 Y97.950 E7.47229
G1 X112.298 Y101.975 E7.58412
G1 X112.953 Y102.705 F7800.000
G1 X87.047 Y102.705 E8.30373 F3600.000
G1 X87.047 Y97.295 E8.45400
G1 X112.953 Y97.295 E9.17360
G1 X112.953 Y102.630 E9.32179
G1 X113.498 Y103.250 F7800.000
G1 X86.502 Y103.250 E9.82090 F1800.000
G1 X86.502 Y96.750 E9.94107
G1 X113.498 Y96.750 E10.44018
G1 X113.498 Y103.175 E10.55897
G1 X113.065 Y103.000 F7800.000
G1 E8.55897 F2400.00000
G92 E0
G1 X111.901 Y98.665 F7800.000
G1 E2.00000 F2400.00000
G1 X111.583 Y98.347 E2.01275 F1200.000
G1 X110.638 Y98.347 E2.03957
G1 X111.901 Y99.610 E2.09026
G1 X111.901 Y100.556 E2.11708
G1 X109.692 Y98.347 E2.20570
G1 X108.747 Y98.347 E2.23253
G1 X111.901 Y101.501 E2.35909
G1 X111.107 Y101.653 E2.38201
G1 X107.801 Y98.347 E2.51466
G1 X106.856 Y98.347 E2.54149
G1 X110.162 Y101.653 E2.67414
G1 X109.216 Y101.653 E2.70097
G1 X105.911 Y98.347 E2.83362
G1 X104.965 Y98.347 E2.86045
G1 X108.271 Y101.653 E2.99310
G1 X107.326 Y101.653 E3.01992
G1 X104.020 Y98.347 E3.15258
G1 X103.074 Y98.347 E3.17940
G1 X106.380 Y101.653 E3.31206
G1 X105.435 Y101.653 E3.33888
G1 X102.129 Y98.347 E3.47154
G1 X101.183 Y98.347 E3.49836
G1 X104.489 Y101.653 E3.63102
G1 X103.544 Y101.653 E3.65784
G1 X100.238 Y98.347 E3.79049
G1 X99.292 Y98.347 E3.81732
G1 X102.598 Y101.653 E3.94997
G1 X101.653 Y101.653 E3.97680
G1 X98.347 Y98.347 E4.10945
G1 X97.402 Y98.347 E4.13628
G1 X100.708 Y101.653 E4.26893
G1 X99.762 Y101.653 E4.29576
G1 X96.456 Y98.347 E4.42841
G1 X95.511 Y98.347 E4.45524
G1 X98.817 Y101.653 E4.58789
G1 X97.871 Y101.653 E4.61471
G1 X94.565 Y98.347 E4.74737
G1 X93.620 Y98.347 E4.77419
G1 X96.926 Y101.653 E4.90685
G1 X95.980 Y101.653 E4.93367
G1 X92.674 Y98.347 E5.06633
G1 X91.729 Y98.347 E5.09315
G1 X95.035 Y101.653 E5.22581
G1 X94.089 Y101.653 E5.25263
G1 X90.783 Y98.347 E5.38528
G1 X89.838 Y98.347 E5.41211
G1 X93.144 Y101.653 E5.54476
G1 X92.199 Y101.653 E5.57159
G1 X88.893 Y98.347 E5.70424
G1 X88.099 Y98.499 E5.72716
G1 X91.253 Y101.653 E5.85372
G1 X90.308 Y101.653 E5.88055
G1 X88.099 Y99.444 E5.96917
G1 X88.099 Y100.390 E5.99599
G1 X89.362 Y101.653 E6.04667
G1 X88.417 Y101.653 E6.07350
G1 X88.099 Y101.335 E6.08624
G1 Z1.850 F7800.000
G1 E4.08624 F2400.00000
G92 E0
G1 X111.847 Y101.396 F7800.000
G1 E2.00000 F2400.00000
G1 X88.153 Y101.396 E2.65815 F3600.000
G1 X88.153 Y98.604 E2.73570
G1 X111.847 Y98.604 E3.39385
G1 X111.847 Y101.321 E3.46931
G1 X112.501 Y102.050 F7800.000
G1 X87.499 Y102.050 E4.16382 F3600.000
G1 X87.499 Y97.950 E4.27774
G1 X112.501 Y97.950 E4.97224
G1 X112.501 Y101.975 E5.08407
G1 X113.156 Y102.705 F7800.000
G1 X86.844 Y102.705 E5.81494 F3600.000
G1 X86.844 Y97.295 E5.96522
G1 X113.156 Y97.295 E6.69608
G1 X113.156 Y102.630 E6.84428
G1 X113.701 Y103.250 F7800.000
G1 X86.299 Y103.250 E7.35088 F1800.000
G1 X86.299 Y96.750 E7.47105
G1 X113.701 Y96.750 E7.97766
G1 X113.701 Y103.175 E8.09644
G1 X113.268 Y103.000 F7800.000
G1 E6.09644 F2400.00000
G92 E0
G1 X111.131 Y100.998 F7800.000
G1 E2.00000 F2400.00000
G1 X111.449 Y100.681 E2.01258 F900.000
G1 X111.449 Y99.748 E2.03871
G1 X110.198 Y100.998 E2.08824
G1 X109.265 Y100.998 E2.11437
G1 X111.262 Y99.002 E2.19345
G1 X110.329 Y99.002 E2.21958
G1 X108.332 Y100.998 E2.29866
G1 X107.399 Y100.998 E2.32479
G1 X109.396 Y99.002 E2.40387
G1 X108.463 Y99.002 E2.43000
G1 X106.466 Y100.998 E2.50908
G1 X105.533 Y100.998 E2.53521
G1 X107.530 Y99.002 E2.61429
G1 X106.597 Y99.002 E2.64042
G1 X104.600 Y100.998 E2.71950
G1 X103.667 Y100.998 E2.74563
G1 X105.664 Y99.002 E2.82471
G1 X104.731 Y99.002 E2.85084
G1 X102.734 Y100.998 E2.92992
G1 X101.801 Y100.998 E2.95605
G1 X103.798 Y99.002 E3.03513
G1 X102.865 Y99.002 E3.06126
G1 X100.868 Y100.998 E3.14034
G1 X99.935 Y100.998 E3.16647
G1 X101.932 Y99.002 E3.24555
G1 X100.998 Y99.002 E3.27168
G1 X99.002 Y100.998 E3.35076
G1 X98.068 Y100.998 E3.37689
G1 X100.065 Y99.002 E3.45597
G1 X99.132 Y99.002 E3.48210
G1 X97.135 Y100.998 E3.56118
G1 X96.202 Y100.998 E3.58731
G1 X98.199 Y99.002 E3.66639
G1 X97.266 Y99.002 E3.69252
G1 X95.269 Y100.998 E3.77160
G1 X94.336 Y100.998 E3.79773
G1 X96.333 Y99.002 E3.87681
G1 X95.400 Y99.002 E3.90294
G1 X93.403 Y100.998 E3.98202
G1 X92.470 Y100.998 E4.00815
G1 X94.467 Y99.002 E4.08723
G1 X93.534 Y99.002 E4.11336
G1 X91.537 Y100.998 E4.19244
G1 X90.604 Y100.998 E4.21856
G1 X92.601 Y99.002 E4.29765
G1 X91.668 Y99.002 E4.32377
G1 X89.671 Y100.998 E4.40286
G1 X88.738 Y100.998 E4.42898
G1 X90.735 Y99.002 E4.50807
G1 X89.802 Y99.002 E4.53419
G1 X88.551 Y100.252 E4.58372
G1 X88.551 Y99.319 E4.60985
G1 X88.868 Y99.002 E4.62243
M106 S255
G1 Z2.150 F7800.000
G1 E2.62243 F2400.00000
G92 E0
G1 X113.331 Y97.705 F7800.000
G1 E2.00000 F2400.00000
G1 X86.669 Y97.705 E2.74062 F2891.157
G1 X86.669 Y97.295 E2.75201
G1 X113.331 Y97.295 E3.49263
G1 X113.331 Y97.630 E3.50193
G1 X112.472 Y98.250 F7800.000
G1 X87.528 Y98.250 E3.96312 F1445.579
G1 X87.528 Y103.250 E4.05556
G1 X86.124 Y103.250 E4.08152
G1 X86.124 Y96.750 E4.20169
G1 X113.876 Y96.750 E4.71479
G1 X113.876 Y103.250 E4.83496
G1 X112.472 Y103.250 E4.86092
G1 X112.472 Y98.325 E4.95197
G1 X112.472 Y97.750 F7800.000
G1 X113.174 Y97.977 F7800.000
G1 X113.174 Y102.977 E5.24341 F963.719
G1 E3.24341 F2400.00000
G92 E0
G1 X86.826 Y102.977 F7800.000
G1 E2.00000 F2400.00000
G1 X86.826 Y97.977 E2.29144 F963.719
G1 Z2.450 F7800.000
G1 X110.748 Y97.705 F7800.000
G1 X110.748 Y98.750 E2.32047 F3182.987
M106 S255
G1 X110.748 Y100.705 E2.37477 F3600.000
G1 X110.252 Y100.705 E2.38855
G1 X110.252 Y98.750 E2.44285
M106 S255
G1 X110.252 Y97.705 E2.47188 F3182.987
G1 X89.748 Y97.705 E3.04144
G1 X89.748 Y98.750 E3.07047
M106 S255
G1 X89.748 Y100.705 E3.12477 F3600.000
G1 X89.252 Y100.705 E3.13855
G1 X89.252 Y98.750 E3.19285
M106 S255
